X: 307
T:Sweets of May
M:6/8
K:G
P:A
d2c|"G"B2G "D7"AFD|"G"GAG "D7"Gdc|"G"B2G GAB|"C"c3 "D7"d2c|
"G"B2G "D7"AFD|"G"GAG "D7"Gdc|"G"B2G "D7"AFD|"G"G3:|
P:B
F2G|"Am"ABA A2G|"Em"E2F G3|"Am"ABA c2d|"Dm"e2d "E7"c2B|
"Am"ABA A2G|"Em"E2F G3|"Am"A2A "G"BAG|"Am"A3:|
P:C
B2c|"D"d3 ded|"D"D3 D2B|"Am"c3 cdc|"D7"D3 DEF|
"G"G2D "D7/a"G2A| "G/b"B2G "C"B2c|"D7"d2d cBA|"G"G3 -G2:|

%%newpage

